X:560
T: STORCH STORCH STANNE
N: E1855
O: Europa, Mitteleuropa, Deutschland, Hessen, Odenwald, Alsbach
R: Kinder - Lied, Tier - Lied
M: 2/4
L: 1/8
K: F
 | ccdd | ccAz |
ccdd | ccAz |
ccdd | ccAz |
ccdd | ccAz |
c2B2 | A4

@@@ Tune index: 5244
